flags/pt-20.svg

<svg width="512" height="512" viewBox="0 0 512 512" fill="none" xmlns="http://www.w3.org/2000/svg">
<path d="M0 512H189.2L230.6 256L189.2 0H0V512Z" fill="var(--flag-palette-blue, #0052b4)"/>
<path d="M189.2 0H512V512H189.2V0Z" fill="var(--flag-palette-white, #eeeeee)"/>
<path d="M91.7998 89V130.8C91.7998 140.772 95.7612 150.336 102.813 157.387C109.864 164.439 119.428 168.4 129.4 168.4C139.372 168.4 148.936 164.439 155.987 157.387C163.038 150.336 167 140.772 167 130.8V89H91.7998Z" fill="var(--flag-palette-bright-red, #d80027)"/>
<path d="M129.4 146.001C121 146.001 114.1 139.201 114.1 130.801V111.301H144.7V130.801C144.7 139.201 137.8 146.101 129.4 146.101V146.001Z" fill="var(--flag-palette-white, #eeeeee)"/>
<path d="M278.3 267.099H211.5C211.122 261.456 208.613 256.167 204.482 252.304C200.351 248.441 194.906 246.292 189.25 246.292C183.594 246.292 178.15 248.441 174.019 252.304C169.887 256.167 167.379 261.456 167 267.099H100.2C100.382 273.077 102.886 278.749 107.179 282.912C111.473 287.075 117.22 289.402 123.2 289.399H122.4C122.4 301.699 132.4 311.699 144.7 311.699C144.7 323.899 154.7 333.899 167 333.899H211.5C223.8 333.899 233.7 323.899 233.7 311.699C246 311.699 256 301.699 256 289.399H255.3C261.281 289.402 267.027 287.075 271.321 282.912C275.615 278.749 278.118 273.077 278.3 267.099ZM287.4 231.499L281.6 240.899L288.6 249.299L278 246.599L272.1 255.999L271.3 244.999L260.6 242.299L270.9 238.199L270.1 227.199L277.1 235.599L287.4 231.499ZM253.4 202.899L251 213.699L260.6 219.199L249.6 220.399L247.3 231.099L242.8 221.099L231.8 222.199L240 214.799L235.6 204.799L245.1 210.299L253.4 202.899ZM211.4 187.699L213 198.599L223.9 200.599L213.9 205.299L215.5 216.299L207.8 208.299L197.9 213.199L203.1 203.399L195.4 195.399L206.3 197.399L211.4 187.699ZM167 187.699L172.1 197.399L183 195.399L175.3 203.399L180.5 213.199L170.6 208.299L162.9 216.299L164.5 205.299L154.5 200.499L165.5 198.499L167 187.699ZM125 202.899L133.2 210.299L142.8 204.799L138.3 214.799L146.5 222.199L135.5 221.099L131 231.099L128.7 220.399L117.7 219.199L127.3 213.699L125 202.899ZM91.0002 231.499L101.2 235.599L108.2 227.199L107.5 238.199L117.7 242.299L107 244.999L106.2 255.999L100.4 246.599L89.7002 249.299L96.7002 240.899L91.0002 231.499Z" fill="var(--flag-palette-dark-yellow, #ffc635)"/>
</svg>

<svg xmlns="http://www.w3.org/2000/svg" width="512" height="512" fill="none"><path fill="var(--flag-palette-blue, #0052b4)" d="M0 512h189.2l41.4-256L189.2 0H0z"/><path fill="var(--flag-palette-white, #eeeeee)" d="M189.2 0H512v512H189.2z"/><path fill="var(--flag-palette-bright-red, #d80027)" d="M91.8 89v41.8a37.6 37.6 0 1 0 75.2 0V89z"/><path fill="var(--flag-palette-white, #eeeeee)" d="M129.4 146c-8.4 0-15.3-6.8-15.3-15.2v-19.5h30.6v19.5c0 8.4-6.9 15.3-15.3 15.3z"/><path fill="var(--flag-palette-dark-yellow, #ffc635)" d="M278.3 267.1h-66.8a22.3 22.3 0 0 0-44.5 0h-66.8a23 23 0 0 0 23 22.3h-.8c0 12.3 10 22.3 22.3 22.3 0 12.2 10 22.2 22.3 22.2h44.5c12.3 0 22.2-10 22.2-22.2 12.3 0 22.3-10 22.3-22.3h-.7a23 23 0 0 0 23-22.3m9.1-35.6-5.8 9.4 7 8.4-10.6-2.7-5.9 9.4-.8-11-10.7-2.7 10.3-4.1-.8-11 7 8.4zm-34-28.6-2.4 10.8 9.6 5.5-11 1.2-2.3 10.7-4.5-10-11 1.1 8.2-7.4-4.4-10 9.5 5.5zm-42-15.2 1.6 10.9 10.9 2-10 4.7 1.6 11-7.7-8-9.9 4.9 5.2-9.8-7.7-8 10.9 2zm-44.4 0 5.1 9.7 10.9-2-7.7 8 5.2 9.8-9.9-4.9-7.7 8 1.6-11-10-4.8 11-2zm-42 15.2 8.2 7.4 9.6-5.5-4.5 10 8.2 7.4-11-1.1-4.5 10-2.3-10.7-11-1.2 9.6-5.5zm-34 28.6 10.2 4.1 7-8.4-.7 11 10.2 4.1L107 245l-.8 11-5.8-9.4-10.7 2.7 7-8.4z"/></svg>
